X: 28067
T: Mr Green's Pipe Box
R: jig
M: 6/8
K: Gmajor
Bc|:dB/c/d dBG|B2A ABc|AFD DFA|GAB ABc|
dB/c/d dBG|B2A ABc|AFD DFA|1 GAF GBc:|2 GAF G2||
|:D3 BdB|c2A A3|F3 AcA|B2G D3|
G3 BG/A/B|c2A A3|D3 AcA|1 GAF G3:|2 GAF GBc||

